X:1
T:Recording-20200213-200652
T:No Time to Die
T:James Bond
T:arr. M.Bijnsdorp
%%score { 1 | 2 }
L:1/8
Q:1/4=143
M:4/4
K:G
V:1 treble nm="Harp" snm="Hrp."
V:2 bass 
V:1
!f! e2 B2 f2 B2 | g2 B2 b4 | e2 B2 f2 B2 | g2 A2 a4 | e2 B2 f2 B2 | g2 G2 f4 | e2 ^c2 f2 c2 | %7
 ^D2 B2 [Ee]4 |!f! !arpeggio![Fcg]2 z2 [CAe]2 z E | G2 E2 [Be]4 |] %10
V:2
 E,2 B,2 F,2 B,2 | E,4 B,2 z2 |!mf! E,2 B,2 F,2 B,2 | D,4 A,2 z2 | E,2 B,2 F,2 B,2 | C,4 B,2 z2 | %6
 A,2 z4 F,2 | [B,,B,]2 z4 z2 | [C,A,]4 [C,G,]2 E,2 | G,2 B,2 z4 |] %10

